contributed-vectors/contre_jour.svg

<?xml version="1.0" encoding="UTF-8" standalone="no"?>
<svg
   xmlns:dc="http://purl.org/dc/elements/1.1/"
   xmlns:cc="http://creativecommons.org/ns#"
   xmlns:rdf="http://www.w3.org/1999/02/22-rdf-syntax-ns#"
   xmlns:svg="http://www.w3.org/2000/svg"
   xmlns="http://www.w3.org/2000/svg"
   xmlns:sodipodi="http://sodipodi.sourceforge.net/DTD/sodipodi-0.dtd"
   xmlns:inkscape="http://www.inkscape.org/namespaces/inkscape"
   viewBox="0 0 192 192"
   version="1.1"
   id="svg16"
   sodipodi:docname="contre_jour.svg"
   inkscape:version="0.92.4 (5da689c313, 2019-01-14)">
  <metadata
     id="metadata20">
    <rdf:RDF>
      <cc:Work
         rdf:about="">
        <dc:format>image/svg+xml</dc:format>
        <dc:type
           rdf:resource="http://purl.org/dc/dcmitype/StillImage" />
        <dc:title></dc:title>
      </cc:Work>
    </rdf:RDF>
  </metadata>
  <sodipodi:namedview
     pagecolor="#ffffff"
     bordercolor="#666666"
     borderopacity="1"
     objecttolerance="10"
     gridtolerance="10"
     guidetolerance="10"
     inkscape:pageopacity="0"
     inkscape:pageshadow="2"
     inkscape:window-width="1920"
     inkscape:window-height="1017"
     id="namedview18"
     showgrid="false"
     inkscape:zoom="4.9166667"
     inkscape:cx="96.07687"
     inkscape:cy="98.440681"
     inkscape:window-x="-8"
     inkscape:window-y="-8"
     inkscape:window-maximized="1"
     inkscape:current-layer="svg16">
    <inkscape:grid
       type="xygrid"
       id="grid827"
       spacingx="4"
       spacingy="4" />
  </sodipodi:namedview>
  <defs
     id="defs4">
    <style
       id="style2">.a{fill:none;stroke:#b1b5bd;stroke-linecap:round;stroke-linejoin:round;isolation:isolate;opacity:0.63;}</style>
  </defs>
  <path
     style="fill:#96dfd3;stroke:none;opacity:1"
     d="M 30 20 C 24.46 20 20 24.46 20 30 L 20 162 C 20 165.40813 21.692379 168.40329 24.28125 170.20703 L 94.576172 141.76367 L 167.71875 170.20703 C 170.30762 168.40329 172 165.40813 172 162 L 172 30 C 172 24.46 167.54 20 162 20 L 30 20 z "
     id="rect6" />
  <rect
     style="opacity:1;vector-effect:none;fill:#4a4a4a;fill-opacity:1;fill-rule:evenodd;stroke:none;stroke-width:8;stroke-linecap:round;stroke-linejoin:round;stroke-miterlimit:4;stroke-dasharray:none;paint-order:stroke fill markers"
     id="rect820"
     width="40"
     height="40"
     x="32"
     y="92"
     ry="20" />
  <rect
     style="opacity:1;vector-effect:none;fill:#4a4a4a;fill-opacity:1;fill-rule:evenodd;stroke:none;stroke-width:8;stroke-linecap:round;stroke-linejoin:round;stroke-miterlimit:4;stroke-dasharray:none;paint-order:stroke fill markers"
     id="rect820-3"
     width="40"
     height="40"
     x="120"
     y="92"
     ry="20" />
  <path
     style="opacity:1;vector-effect:none;fill:#73ada4;fill-opacity:1;fill-rule:evenodd;stroke:none;stroke-width:8;stroke-linecap:round;stroke-linejoin:round;stroke-miterlimit:4;stroke-dasharray:none;paint-order:stroke fill markers"
     d="M 30 20 C 24.46 20 20 24.46 20 30 L 20 75.023438 C 27.87248 80.670557 37.530022 84 48 84 C 74.592 84 96 62.592 96 36 C 96 30.382963 95.034812 25.001528 93.277344 20 L 30 20 z "
     id="rect837" />
  <path
     style="opacity:1;vector-effect:none;fill:#56595b;fill-opacity:1;fill-rule:evenodd;stroke:none;stroke-width:8.22857189;stroke-linecap:round;stroke-linejoin:round;stroke-miterlimit:4;stroke-dasharray:none;paint-order:stroke fill markers"
     d="M 96 92 C 56.112 92 24 124.112 24 164 C 24 166.09319 24.107906 168.16018 24.28125 170.20703 C 25.900659 171.33532 27.868125 172 30 172 L 162 172 C 164.13187 172 166.09934 171.33532 167.71875 170.20703 C 167.89209 168.16018 168 166.09319 168 164 C 168 124.112 135.888 92 96 92 z "
     id="rect818" />
  <path
     style="opacity:1;vector-effect:none;fill:#ffffff;fill-opacity:1;fill-rule:evenodd;stroke:none;stroke-width:10.28571415;stroke-linecap:round;stroke-linejoin:round;stroke-miterlimit:4;stroke-dasharray:none;paint-order:stroke fill markers"
     d="M 96 108 C 76.056 108 60 124.056 60 144 C 60 155.33583 65.19031 165.41058 73.330078 172 L 118.66992 172 C 126.80969 165.41058 132 155.33583 132 144 C 132 124.056 115.944 108 96 108 z "
     id="rect882" />
  <rect
     style="opacity:1;vector-effect:none;fill:#56595b;fill-opacity:1;fill-rule:evenodd;stroke:none;stroke-width:8;stroke-linecap:round;stroke-linejoin:round;stroke-miterlimit:4;stroke-dasharray:none;paint-order:stroke fill markers"
     id="rect900"
     width="64"
     height="12"
     x="64"
     y="104" />
  <rect
     style="opacity:1;vector-effect:none;fill:#56595b;fill-opacity:1;fill-rule:evenodd;stroke:none;stroke-width:6.4000001;stroke-linecap:round;stroke-linejoin:round;stroke-miterlimit:4;stroke-dasharray:none;paint-order:stroke fill markers"
     id="rect902"
     width="32"
     height="32"
     x="80"
     y="116"
     ry="16" />
</svg>

<svg xmlns="http://www.w3.org/2000/svg" id="svg16" version="1.1" viewBox="0 0 192 192"><defs id="defs4"><style id="style2">.a{fill:none;stroke:#b1b5bd;stroke-linecap:round;stroke-linejoin:round;isolation:isolate;opacity:.63}</style></defs><path id="rect6" d="M30 20c-5.54 0-10 4.46-10 10v132a9.97 9.97 0 0 0 4.281 8.207l70.295-28.443 73.143 28.443A9.97 9.97 0 0 0 172 162V30c0-5.54-4.46-10-10-10H30z" style="fill:#96dfd3;stroke:none;opacity:1"/><rect id="rect820" width="40" height="40" x="32" y="92" ry="20" style="opacity:1;vector-effect:none;fill:#4a4a4a;fill-opacity:1;fill-rule:evenodd;stroke:none;stroke-width:8;stroke-linecap:round;stroke-linejoin:round;stroke-miterlimit:4;stroke-dasharray:none;paint-order:stroke fill markers"/><rect id="rect820-3" width="40" height="40" x="120" y="92" ry="20" style="opacity:1;vector-effect:none;fill:#4a4a4a;fill-opacity:1;fill-rule:evenodd;stroke:none;stroke-width:8;stroke-linecap:round;stroke-linejoin:round;stroke-miterlimit:4;stroke-dasharray:none;paint-order:stroke fill markers"/><path id="rect837" d="M30 20c-5.54 0-10 4.46-10 10v45.023C27.872 80.671 37.53 84 48 84c26.592 0 48-21.408 48-48 0-5.617-.965-10.998-2.723-16H30z" style="opacity:1;vector-effect:none;fill:#73ada4;fill-opacity:1;fill-rule:evenodd;stroke:none;stroke-width:8;stroke-linecap:round;stroke-linejoin:round;stroke-miterlimit:4;stroke-dasharray:none;paint-order:stroke fill markers"/><path id="rect818" d="M96 92c-39.888 0-72 32.112-72 72 0 2.093.108 4.16.281 6.207A9.962 9.962 0 0 0 30 172h132c2.132 0 4.1-.665 5.719-1.793.173-2.047.281-4.114.281-6.207 0-39.888-32.112-72-72-72z" style="opacity:1;vector-effect:none;fill:#56595b;fill-opacity:1;fill-rule:evenodd;stroke:none;stroke-width:8.22857189;stroke-linecap:round;stroke-linejoin:round;stroke-miterlimit:4;stroke-dasharray:none;paint-order:stroke fill markers"/><path id="rect882" d="M96 108c-19.944 0-36 16.056-36 36a35.89 35.89 0 0 0 13.33 28h45.34A35.89 35.89 0 0 0 132 144c0-19.944-16.056-36-36-36z" style="opacity:1;vector-effect:none;fill:#fff;fill-opacity:1;fill-rule:evenodd;stroke:none;stroke-width:10.28571415;stroke-linecap:round;stroke-linejoin:round;stroke-miterlimit:4;stroke-dasharray:none;paint-order:stroke fill markers"/><path id="rect900" d="M64 104h64v12H64z" style="opacity:1;vector-effect:none;fill:#56595b;fill-opacity:1;fill-rule:evenodd;stroke:none;stroke-width:8;stroke-linecap:round;stroke-linejoin:round;stroke-miterlimit:4;stroke-dasharray:none;paint-order:stroke fill markers"/><rect id="rect902" width="32" height="32" x="80" y="116" ry="16" style="opacity:1;vector-effect:none;fill:#56595b;fill-opacity:1;fill-rule:evenodd;stroke:none;stroke-width:6.4000001;stroke-linecap:round;stroke-linejoin:round;stroke-miterlimit:4;stroke-dasharray:none;paint-order:stroke fill markers"/></svg>
